packages/core/src/svgs/tokens/branded/XAUR.svg

<svg width="24" height="24" viewBox="0 0 24 24" fill="none" xmlns="http://www.w3.org/2000/svg">
<path d="M4.43999 2.09918L12.0973 9.85028C12.0349 9.89404 11.9974 9.93167 11.9349 9.99409L4.27746 2.24295C4.23997 2.19919 4.17745 2.2242 4.17745 2.2242C4.17745 2.2242 4.11494 2.24295 4.11494 2.29922V5.76223C4.11494 6.01226 4.22121 6.2498 4.37748 6.41233L9.41579 11.513C9.59694 11.6943 9.81573 11.7756 10.0533 11.7756H11.5973C11.616 11.857 11.6598 11.9194 11.6973 12.0006H10.0345C9.73449 12.0006 9.45328 11.8756 9.23449 11.6757L4.20245 6.57484C4.09674 6.46797 4.01351 6.34101 3.95768 6.20144C3.90184 6.06187 3.87455 5.91253 3.8774 5.76223V2.29922C3.8774 2.18045 3.95867 2.06168 4.07744 2.01792C4.22121 1.98041 4.33998 1.99916 4.43999 2.09918Z" fill="url(#paint0_linear_364_10818)"/>
<path d="M19.5917 2.08045L9.95898 11.8319C10.0528 11.8756 10.134 11.9382 10.2153 12.0006H14.0158C14.2909 12.0006 14.5348 11.8945 14.7347 11.6943L19.8293 6.53736C20.0293 6.33108 20.1293 6.0873 20.1293 5.806V2.30548C20.1293 2.18047 20.0481 2.0617 19.9292 2.02418C19.8042 1.98043 19.6729 1.99918 19.5917 2.0867V2.08045ZM19.848 2.20547C19.8668 2.20547 19.9105 2.22422 19.9105 2.30548V5.806C19.9105 6.03104 19.8293 6.23106 19.6729 6.36859L14.5722 11.5319C14.4159 11.6943 14.2159 11.7756 14.0097 11.7756H10.3153L19.7542 2.22422C19.7917 2.18671 19.8293 2.20547 19.848 2.20547Z" fill="url(#paint1_linear_364_10818)"/>
<path d="M14.7159 12.9071L19.8293 17.739C20.0293 17.9266 20.1293 18.1579 20.1293 18.4266V21.7208C20.1293 21.8334 20.0481 21.9459 19.948 21.9834C19.8908 22.0012 19.8303 22.0047 19.7715 21.9939C19.7128 21.983 19.6575 21.9579 19.6105 21.921L12.1281 14.8636L13.7533 13.3321C13.7626 13.324 13.77 13.3138 13.7751 13.3025C13.7802 13.2912 13.783 13.2789 13.783 13.2665C13.783 13.2541 13.7802 13.2419 13.7751 13.2305C13.77 13.2191 13.7626 13.209 13.7533 13.2009C13.7439 13.1912 13.7328 13.1835 13.7204 13.1783C13.7082 13.173 13.6949 13.1704 13.6815 13.1704C13.6681 13.1704 13.6548 13.173 13.6424 13.1783C13.63 13.1835 13.6189 13.1912 13.6096 13.2009L11.9843 14.7323L4.38943 21.9147C4.28941 21.9897 4.17064 22.0271 4.05187 21.9708C3.92686 21.9084 3.87061 21.8209 3.87061 21.7083V18.4642C3.87061 18.1828 3.99562 17.914 4.1894 17.7141L9.24022 12.9321C9.459 12.7258 9.74021 12.632 10.0402 12.632H14.0034C14.2846 12.632 14.5222 12.7258 14.7222 12.9132L14.7159 12.9071Z" fill="url(#paint2_linear_364_10818)"/>
<defs>
<linearGradient id="paint0_linear_364_10818" x1="-96.6207" y1="-99.56" x2="80.4221" y2="22.7143" gradientUnits="userSpaceOnUse">
<stop offset="0.62" stop-color="#A87517"/>
<stop offset="0.71" stop-color="#F6CA63"/>
<stop offset="0.76" stop-color="#F6CA63"/>
</linearGradient>
<linearGradient id="paint1_linear_364_10818" x1="-80.5206" y1="-107.705" x2="68.7196" y2="20.0789" gradientUnits="userSpaceOnUse">
<stop offset="0.76" stop-color="#F6CA63"/>
<stop offset="0.85" stop-color="#A67C20"/>
</linearGradient>
<linearGradient id="paint2_linear_364_10818" x1="-51.1814" y1="-41.089" x2="-20.1204" y2="49.0431" gradientUnits="userSpaceOnUse">
<stop offset="0.76" stop-color="#F6CA63"/>
<stop offset="0.85" stop-color="#A67C20"/>
<stop offset="1" stop-color="#735418"/>
</linearGradient>
</defs>
</svg>

<svg xmlns="http://www.w3.org/2000/svg" width="24" height="24" fill="none" viewBox="0 0 24 24">
    <path fill="url(#XAUR__a)" d="m4.44 2.1 7.657 7.75c-.062.044-.1.082-.162.144L4.277 2.243c-.037-.044-.1-.019-.1-.019s-.062.019-.062.075v3.463c0 .25.106.488.262.65l5.039 5.101c.18.181.4.263.637.263h1.544c.019.081.063.143.1.225h-1.662c-.3 0-.582-.125-.8-.325L4.201 6.575a1.13 1.13 0 0 1-.325-.813V2.3a.31.31 0 0 1 .2-.281c.144-.038.263-.019.363.081"/>
    <path fill="url(#XAUR__b)" d="m19.592 2.08-9.633 9.752c.094.044.175.106.256.169h3.8a1 1 0 0 0 .72-.307l5.094-5.157q.3-.31.3-.731v-3.5a.3.3 0 0 0-.2-.282c-.125-.044-.256-.025-.337.063zm.256.125c.019 0 .063.02.063.1v3.501a.73.73 0 0 1-.238.563l-5.1 5.163a.77.77 0 0 1-.563.244h-3.695l9.44-9.552c.037-.037.074-.019.093-.019"/>
    <path fill="url(#XAUR__c)" d="m14.716 12.907 5.113 4.832q.3.283.3.688v3.294a.3.3 0 0 1-.181.262.37.37 0 0 1-.338-.062l-7.482-7.057 1.625-1.532a.1.1 0 0 0 .03-.066.1.1 0 0 0-.03-.065.1.1 0 0 0-.11-.023.1.1 0 0 0-.033.023l-1.626 1.531-7.595 7.183c-.1.075-.218.112-.337.056-.125-.063-.181-.15-.181-.263v-3.244c0-.281.125-.55.318-.75l5.051-4.782c.219-.206.5-.3.8-.3h3.963q.422 0 .72.281z"/>
    <defs>
        <linearGradient id="XAUR__a" x1="-96.621" x2="80.422" y1="-99.56" y2="22.714" gradientUnits="userSpaceOnUse">
            <stop offset=".62" stop-color="#A87517"/>
            <stop offset=".71" stop-color="#F6CA63"/>
            <stop offset=".76" stop-color="#F6CA63"/>
        </linearGradient>
        <linearGradient id="XAUR__b" x1="-80.521" x2="68.72" y1="-107.705" y2="20.079" gradientUnits="userSpaceOnUse">
            <stop offset=".76" stop-color="#F6CA63"/>
            <stop offset=".85" stop-color="#A67C20"/>
        </linearGradient>
        <linearGradient id="XAUR__c" x1="-51.181" x2="-20.12" y1="-41.089" y2="49.043" gradientUnits="userSpaceOnUse">
            <stop offset=".76" stop-color="#F6CA63"/>
            <stop offset=".85" stop-color="#A67C20"/>
            <stop offset="1" stop-color="#735418"/>
        </linearGradient>
    </defs>
</svg>
